X:1
T:Lady Dorothea Stewart Murray
M:C
L:1/8
Q:80
C:Aeneas Rose
S:Reel
K:HP
|: a|
c/2e3/2{g}A3/2e/2{g}c/2{d}A3/2{gef}e2|
{gfg}f2{g}e/2a3/2{cd}c2{gfg}f2|
{g}c/2e3/2{g}A3/2e/2{g}c/2{d}A3/2{gef}e2|  !
{gfg}f2{g}e3/2d/2{g}c3/2{d}A/2{d}A:| [|
e|
{ag}a2e/2a3/2c/2{d}A3/2{gcd}c2|
{gf}g2{a}f/2g3/2B/2{d}G3/2{gBd}B2|  !
{ag}a2e/2a3/2c/2{d}A3/2{gcd}c2|
{gfg}f2{g}e3/2d/2{g}c3/2{d}A/2{d}A3/2e/2{ag}a2e/2a3/2c/2{d}A3/2{gcd}c2|
{gf}g2{a}f/2g3/2B/2{d}G3/2{gBd}B2|  !
{g}A3/2B/2{GdG}c3/2d/2{gef}e/2A3/2{gcd}c2|
{gfg}f2{g}e3/2d/2{g}c3/2{d}A/2{d}A|]

